X: 43439
T: Yanik's
R: jig
M: 6/8
K: Cmajor
EF^F|:G2 C EDC|EFG GEc|AFd BGg|efd e2d|
c2 C EDC|EFG GEc|AFd BGB|1 c2c cBA:|2 c2c cgf||
|:ege cGC|EGc ecg|f2f d2c|BdB Ggf|
ege cGC|EGc ecg|f2f d2c|1 BAB cgf:|2 BAB cBA||

